img/drone-icon.svg

<svg width="120" height="55" viewBox="0 0 120 55" fill="none" xmlns="http://www.w3.org/2000/svg">
<path d="M23.4361 0C22.5319 0.00278404 21.6483 0.288054 20.8947 0.820488C20.1411 1.35292 19.5507 2.10914 19.1965 2.9955C8.0473 3.67438 -0.034688 4.81607 0.000111951 5.70846C0.0325119 6.59445 8.0545 6.98311 19.1137 6.63409C19.4977 7.73614 20.2369 8.6541 21.1993 9.22559H19.4041V12.7312H17.2081C17.0702 12.731 16.9337 12.7598 16.8064 12.8159C16.679 12.872 16.5632 12.9543 16.4657 13.058C16.3682 13.1618 16.2908 13.285 16.238 13.4207C16.1852 13.5564 16.1581 13.7018 16.1581 13.8486V16.3468C16.1581 16.9643 16.6273 17.4642 17.2069 17.4642H31.9861C35.7096 18.3975 36.126 19.8204 38.9148 22.4247C38.4588 25.1262 37.7868 28.0756 37.2612 30.6249V52.3248C37.2612 53.0343 37.5258 53.7147 37.9967 54.2164C38.4676 54.7181 39.1063 55 39.7722 55C40.4382 55 41.0769 54.7181 41.5478 54.2164C42.0187 53.7147 42.2832 53.0343 42.2832 52.3248V41.8322C42.2256 33.0106 43.5624 29.4436 48.1692 22.6152L49.3272 22.0424C49.3272 27.3431 52.7664 27.6614 57.6168 28.844H53.9736C52.8648 28.844 51.9648 29.8029 51.9648 30.9855V43.7704C51.9648 44.9517 52.8648 45.9106 53.9736 45.9106H66.0264C67.1352 45.9106 68.0352 44.9517 68.0352 43.7704V30.9855C68.0352 29.8029 67.1352 28.8453 66.0264 28.8453H62.3868C67.236 27.6588 70.6728 27.3418 70.6728 22.0424L71.8308 22.6152C77.6592 29.0409 77.7168 33.4146 77.7168 41.8309V52.3235C77.7168 53.033 77.9813 53.7135 78.4522 54.2152C78.9231 54.7169 79.5618 54.9987 80.2278 54.9987C80.8937 54.9987 81.5324 54.7169 82.0033 54.2152C82.4742 53.7135 82.7388 53.033 82.7388 52.3235V30.6249C82.1232 27.8238 81.4644 24.8884 80.8428 21.9798C83.4816 19.2247 84.5639 18.6046 87.9899 17.4642H102.793C103.071 17.4642 103.338 17.3464 103.535 17.1369C103.731 16.9273 103.842 16.6431 103.842 16.3468V13.8486C103.842 13.5522 103.731 13.268 103.535 13.0585C103.338 12.8489 103.071 12.7312 102.793 12.7312H100.596V9.22559H98.8007C99.7637 8.65429 100.503 7.73521 100.886 6.63409C111.946 6.98311 119.967 6.59445 120 5.70846C120.035 4.81607 111.953 3.67566 100.804 2.9955C100.462 2.14071 99.8998 1.40639 99.1829 0.87736C98.466 0.348329 97.6232 0.0461733 96.7519 0.00579638C95.8806 -0.0345805 95.0164 0.188468 94.2591 0.649177C93.5017 1.10989 92.8822 1.78946 92.4719 2.6094C81.3036 2.24759 73.1484 2.63241 73.1016 3.5248C73.0668 4.41079 81.0396 5.54481 92.0939 6.22497C92.2562 6.85627 92.5349 7.44678 92.9138 7.96199C93.2927 8.4772 93.7642 8.90677 94.3007 9.22559H92.5055V12.7312C81.1848 12.7031 72.4224 6.64176 60 6.39245C47.9964 6.66349 37.944 12.7312 27.4945 12.7312V9.22559H25.6993C26.2358 8.90677 26.7073 8.4772 27.0862 7.96199C27.4651 7.44678 27.7438 6.85627 27.9061 6.22497C38.9604 5.54481 46.9332 4.40951 46.8984 3.5248C46.8516 2.63241 38.6964 2.24631 27.5281 2.6094C27.1329 1.81952 26.5431 1.15932 25.8221 0.699794C25.1011 0.240263 24.2762 -0.00122999 23.4361 0.00127779V0ZM60 31.9789C62.8164 31.9789 65.1312 34.4451 65.1312 37.4457C65.1312 40.4463 62.8164 42.9138 60 42.9138C57.1836 42.9138 54.8664 40.4463 54.8664 37.4457C54.8664 34.4451 57.1824 31.9789 60 31.9789ZM60 35.1879C58.812 35.1879 57.8796 36.18 57.8796 37.4457C57.8796 38.7114 58.812 39.7035 60 39.7035C61.188 39.7035 62.118 38.7114 62.118 37.4457C62.118 36.18 61.188 35.1879 60 35.1879Z" fill="#0E0D0F"/>
</svg>

<svg width="120" height="55" fill="none" xmlns="http://www.w3.org/2000/svg"><path d="M23.436 0a4.423 4.423 0 0 0-2.541.82 4.865 4.865 0 0 0-1.698 2.175C8.046 3.675-.035 4.816 0 5.708c.033.886 8.055 1.275 19.114.926a4.856 4.856 0 0 0 2.085 2.592h-1.795v3.505h-2.196a.992.992 0 0 0-.402.085 1.048 1.048 0 0 0-.34.242 1.125 1.125 0 0 0-.228.363c-.053.135-.08.28-.08.428v2.498c0 .617.47 1.117 1.049 1.117h14.78c3.723.934 4.139 2.356 6.928 4.96-.456 2.702-1.128 5.652-1.654 8.2v21.7c0 .71.265 1.39.736 1.892.47.502 1.11.784 1.775.784.666 0 1.305-.282 1.776-.784.47-.501.735-1.182.735-1.891V41.832c-.057-8.821 1.28-12.388 5.886-19.217l1.158-.573c0 5.301 3.44 5.62 8.29 6.802h-3.643c-1.11 0-2.01.959-2.01 2.141V43.77c0 1.182.9 2.14 2.01 2.14h12.052c1.11 0 2.01-.958 2.01-2.14V30.985c0-1.182-.9-2.14-2.01-2.14h-3.64c4.85-1.186 8.287-1.503 8.287-6.803l1.158.573c5.828 6.426 5.886 10.8 5.886 19.216v10.492c0 .71.264 1.39.735 1.892s1.11.784 1.776.784c.666 0 1.304-.282 1.775-.784.471-.502.736-1.182.736-1.892V30.626c-.616-2.801-1.275-5.737-1.896-8.645 2.639-2.755 3.72-3.375 7.147-4.516h14.803c.278 0 .545-.118.742-.327.196-.21.307-.494.307-.79v-2.498c0-.297-.111-.581-.307-.79a1.019 1.019 0 0 0-.742-.328h-2.197V9.226h-1.795a4.85 4.85 0 0 0 2.085-2.592c11.06.35 19.081-.04 19.114-.926.035-.892-8.047-2.032-19.196-2.713A4.877 4.877 0 0 0 99.183.877a4.437 4.437 0 0 0-2.431-.871 4.397 4.397 0 0 0-2.493.643 4.798 4.798 0 0 0-1.787 1.96c-11.168-.361-19.324.023-19.37.916-.035.886 7.938 2.02 18.992 2.7.162.631.44 1.222.82 1.737.379.515.85.945 1.387 1.264h-1.796v3.505C81.185 12.703 72.422 6.641 60 6.392c-12.004.271-22.056 6.34-32.505 6.34V9.225h-1.796a4.716 4.716 0 0 0 1.387-1.264 5.057 5.057 0 0 0 .82-1.737c11.054-.68 19.027-1.815 18.992-2.7-.046-.893-8.202-1.279-19.37-.916A4.807 4.807 0 0 0 25.822.7a4.41 4.41 0 0 0-2.386-.698V0zM60 31.979c2.816 0 5.131 2.466 5.131 5.467 0 3-2.315 5.468-5.131 5.468-2.816 0-5.134-2.468-5.134-5.468s2.316-5.467 5.134-5.467zm0 3.209c-1.188 0-2.12.992-2.12 2.258 0 1.265.932 2.258 2.12 2.258 1.188 0 2.118-.993 2.118-2.258 0-1.266-.93-2.258-2.118-2.258z" fill="#0E0D0F"/></svg>
